X:19
T:Cape Breton Visit to Shetland, The
R:Reel
C:W. Hunter
N: W. Hunter 1982
Z: 1997 by John Chambers <jc@trillian.mit.edu>
M:C|
L:1/8
K:A
F2 |\
"A" EC ~C2 C2B,C  | A,B,CE     FECE   | "Bm" FB~B2     BcBA | "D"  Bffe "E" f2fg |
"A" ac ~c2 eA ~A2 | cBAF "F#m" EC ~C2 | "D" FGAF  "Bm" Eaaf | "E7" ecBc "A" A2  :|
|: fg |\
"A" ae ~e2 efed   | ce ~e2 fece | "Bm" bf ~f2    fgfe |      defd "E7" B2fg |
"A" ae ~e2 efed   | ce ~e2 fece | "D"  fdge "Bm" afed | "E7" cdBc "A"  A2  :|
